X: 3174
T: COUNTESS OF SUTHERLAND
Q: "Reel."
R: Reel.
%R: reel
B: James Kerr "Merry Melodies" v.3 p.20 #174
Z: 2016 John Chambers <jc:trillian.mit.edu>
M: C
L: 1/8
K: Bb
d |\
B2(FB) GBFB | EBDB Cccd |\
B2(FB) Ggfe | dfce dBBd |\
B2(FB) GBFB | EBDB Cccd |\
B2(FB) Ggfe | dfce dBB |]
a |\
bfdf egce | dfBd cFFf |\
bfdf egce | dfce dBBa |\
bfdf egce | dfBd cFFf |\
bfdf egce | dfce dBB |]

%%sep 1 1 500
%%sep 1 1 500

